X:452
T:
R:vals
S:Av kyrkoherde C. Söderström, Rone 1847.
C:C. Söderström
O:Gotland, Visby
M:3/4
L:1/8
K:D
F3 A,DF|B4 A2|FGABcd|d4 c2|c4 B2|B4 A2|B3 FGB|E3 DEF|G3 ECB,|B,4 A,2|F3 A,DF|B4 A2|^GABcde|f3 cdA|c3 BGE|D4 z2::
K:G
d2 B2 g2|f3e d2|(dc)(AF)(DC)|C4 B,2|B,2 D2 G2|F3 E D2|(cA)(FD)(CA,)|G,4 z2::B4 d2|c4 e2|d3 c d2|b3 fge|d4 ed|
c3 aac|B3 ggB|B3 AFA|e4 d2|B4 e2|c4 e2|d3 c d2|b3 fge|d4 g2|f3 Acf|[B4g4] z2:|

